app/assets/images/remix_icon/health/dislike-fill.svg

<svg viewBox="0 0 24 24" xmlns="http://www.w3.org/2000/svg"><path d="M2.80777 1.39355L21.1925 19.7783L19.7783 21.1925L16.0316 17.4456L12 21.4852L3.52154 12.9932C1.48186 10.7095 1.49309 7.2403 3.55524 4.96974L1.39355 2.80777L2.80777 1.39355ZM20.2428 4.75752C22.5054 7.02488 22.5831 10.6372 20.4788 12.9932L18.8442 14.6292L7.2604 3.04566C8.92926 2.8395 10.6682 3.33385 12.0011 4.52869C14.3502 2.42016 17.9802 2.49016 20.2428 4.75752Z"/></svg>

<svg xmlns="http://www.w3.org/2000/svg" viewBox="0 0 24 24">
    <g>
        <path fill="none" d="M0 0H24V24H0z"/>
        <path d="M2.808 1.393l18.384 18.385-1.414 1.414-3.747-3.747L12 21.485 3.52 12.993c-2.04-2.284-2.028-5.753.034-8.023L1.393 2.808l1.415-1.415zm17.435 3.364c2.262 2.268 2.34 5.88.236 8.236l-1.635 1.636L7.26 3.046c1.67-.207 3.408.288 4.741 1.483 2.349-2.109 5.979-2.039 8.242.228z"/>
    </g>
</svg>
